icon/lg/aws-elastic-beanstalk.svg

<?xml version="1.0" encoding="UTF-8"?>
<svg viewBox="0 0 256 256" version="1.1" xmlns="http://www.w3.org/2000/svg" xmlns:xlink="http://www.w3.org/1999/xlink" preserveAspectRatio="xMidYMid" height="1em" width="1em">
  <defs>
    <linearGradient x1="0%" y1="100%" x2="100%" y2="0%" id="linearGradient-1">
      <stop stop-color="#C8511B" offset="0%"/>
      <stop stop-color="#FF9900" offset="100%"/>
    </linearGradient>
  </defs>
  <g>
    <rect fill="url(#linearGradient-1)" x="0" y="0" width="256" height="256"/>
    <path d="M161.557792,147.073673 C161.557792,141.769265 157.256273,137.452618 151.970454,137.452618 C146.684636,137.452618 142.383116,141.769265 142.383116,147.073673 C142.383116,152.378081 146.684636,156.694727 151.970454,156.694727 C157.256273,156.694727 161.557792,152.378081 161.557792,147.073673 M126.404221,115.003491 C131.69004,115.003491 135.991558,110.686844 135.991558,105.382436 C135.991558,100.078028 131.69004,95.7613821 126.404221,95.7613821 C121.118402,95.7613821 116.816884,100.078028 116.816884,105.382436 C116.816884,110.686844 121.118402,115.003491 126.404221,115.003491 M97.6422083,150.280691 C102.928027,150.280691 107.229546,145.964044 107.229546,140.659636 C107.229546,135.355228 102.928027,131.038582 97.6422083,131.038582 C92.3563898,131.038582 88.054871,135.355228 88.054871,140.659636 C88.054871,145.964044 92.3563898,150.280691 97.6422083,150.280691 M167.94935,147.073673 C167.94935,154.818622 162.449414,161.293591 155.166233,162.784855 L155.166233,182.350873 C155.166233,184.121147 153.73772,185.557891 151.970454,185.557891 L129.6,185.557891 L129.6,204.8 L123.208442,204.8 L123.208442,169.5228 L97.6422083,169.5228 C95.8749424,169.5228 94.4464291,168.086056 94.4464291,166.315782 L94.4464291,156.370819 C87.1632486,154.879555 81.6633126,148.404585 81.6633126,140.659636 C81.6633126,131.817887 88.8314451,124.624546 97.6422083,124.624546 C106.452972,124.624546 113.621104,131.817887 113.621104,140.659636 C113.621104,148.404585 108.121168,154.879555 100.837988,156.370819 L100.837988,163.108764 L123.208442,163.108764 L123.208442,121.093619 C115.925261,119.602355 110.425325,113.127386 110.425325,105.382436 C110.425325,96.5406874 117.593458,89.3473456 126.404221,89.3473456 C135.214984,89.3473456 142.383116,96.5406874 142.383116,105.382436 C142.383116,113.127386 136.883181,119.602355 129.6,121.093619 L129.6,179.143855 L148.774675,179.143855 L148.774675,162.784855 C141.491494,161.293591 135.991558,154.818622 135.991558,147.073673 C135.991558,138.231924 143.159691,131.038582 151.970454,131.038582 C160.781217,131.038582 167.94935,138.231924 167.94935,147.073673 M214.4,131.237417 C214.4,154.735239 196.941459,163.108764 180.604636,163.108764 L180.604636,156.694727 C188.843354,156.694727 208.008442,154.212495 208.008442,131.237417 C208.008442,114.0478 194.982446,107.816564 184.056077,105.616549 C182.630759,105.331124 181.579348,104.115664 181.493062,102.662885 C180.700509,89.1998227 172.883633,84.4213658 166.424963,84.4213658 C162.059529,84.4213658 157.965736,86.5091347 155.194995,90.1523072 C154.488728,91.0855494 153.325465,91.5601882 152.174984,91.3805952 C151.024503,91.2074163 150.056182,90.4152829 149.653514,89.3152755 C147.151219,82.4939478 143.559164,76.7790416 138.97322,72.3277002 C127.190382,60.8626102 111.074068,57.7518026 95.855768,64.0151091 C83.219657,69.1784083 73.3255248,84.1070781 73.3255248,98.0030877 C73.3255248,99.5392496 73.4182022,101.081825 73.6067533,102.589124 C73.8048915,104.202254 72.772655,105.709552 71.2035274,106.097602 C63.7286,107.954465 51.1915584,113.656543 51.1915584,130.996891 C51.1915584,131.65433 51.2203203,132.282905 51.2522781,132.876204 C52.0000906,146.22702 63.7861238,156.694727 78.0872358,156.694727 L81.6633126,156.694727 L81.6633126,163.108764 L78.0872358,163.108764 C60.3985981,163.108764 45.8066704,149.982438 44.8703072,133.225768 C44.8351536,132.51381 44.8,131.772989 44.8,130.996891 C44.8,110.847196 58.7240099,103.320324 67.0106653,100.632843 C66.956337,99.7573267 66.9339664,98.8786038 66.9339664,98.0030877 C66.9339664,81.4131827 78.3301149,64.2492214 93.4429546,58.0789184 C111.070872,50.8278502 129.756593,54.4261248 143.418549,67.719215 C147.620999,71.7953354 151.085223,76.7565923 153.753699,82.509983 C157.355342,79.6076314 161.775105,78.0073293 166.424963,78.0073293 C175.894057,78.0073293 185.845713,84.7869658 187.65772,99.8503302 C204.927711,104.07718 214.4,115.151014 214.4,131.237417" fill="#FFFFFF"/>
  </g>
</svg>

<svg width="256" height="256" xmlns="http://www.w3.org/2000/svg" preserveAspectRatio="xMidYMid"><defs><linearGradient x1="0%" y1="100%" x2="100%" y2="0%" id="a"><stop stop-color="#C8511B" offset="0%"/><stop stop-color="#F90" offset="100%"/></linearGradient></defs><path fill="url(#a)" d="M0 0h256v256H0z"/><path d="M161.558 147.074c0-5.305-4.302-9.621-9.588-9.621-5.285 0-9.587 4.316-9.587 9.62 0 5.305 4.302 9.622 9.587 9.622 5.286 0 9.588-4.317 9.588-9.621m-35.154-32.07c5.286 0 9.588-4.317 9.588-9.622 0-5.304-4.302-9.62-9.588-9.62s-9.587 4.316-9.587 9.62c0 5.305 4.301 9.621 9.587 9.621m-28.762 35.278c5.286 0 9.588-4.317 9.588-9.621 0-5.305-4.302-9.621-9.588-9.621s-9.587 4.316-9.587 9.62c0 5.305 4.301 9.622 9.587 9.622m70.307-3.207c0 7.745-5.5 14.22-12.783 15.71v19.567a3.2 3.2 0 0 1-3.196 3.207H129.6V204.8h-6.392v-35.277H97.642a3.2 3.2 0 0 1-3.196-3.207v-9.945c-7.283-1.491-12.783-7.966-12.783-15.711 0-8.842 7.168-16.035 15.98-16.035 8.81 0 15.978 7.193 15.978 16.035 0 7.745-5.5 14.22-12.783 15.71v6.739h22.37v-42.015c-7.283-1.492-12.783-7.967-12.783-15.712 0-8.841 7.168-16.035 15.98-16.035 8.81 0 15.978 7.194 15.978 16.035 0 7.745-5.5 14.22-12.783 15.712v58.05h19.175v-16.36c-7.284-1.49-12.783-7.965-12.783-15.71 0-8.842 7.168-16.035 15.978-16.035 8.811 0 15.98 7.193 15.98 16.035m46.45-15.837c0 23.498-17.459 31.872-33.795 31.872v-6.414c8.238 0 27.403-2.483 27.403-25.458 0-17.19-13.026-23.42-23.952-25.62a3.203 3.203 0 0 1-2.563-2.954c-.792-13.463-8.61-18.242-15.068-18.242-4.365 0-8.46 2.088-11.23 5.731a3.182 3.182 0 0 1-3.02 1.229 3.197 3.197 0 0 1-2.521-2.066c-2.503-6.821-6.095-12.536-10.68-16.987-11.784-11.465-27.9-14.576-43.118-8.313-12.636 5.163-22.53 20.092-22.53 33.988 0 1.536.092 3.079.28 4.586a3.207 3.207 0 0 1-2.402 3.509c-7.475 1.856-20.012 7.559-20.012 24.899 0 .657.028 1.286.06 1.88.748 13.35 12.534 23.818 26.835 23.818h3.576v6.414h-3.576c-17.688 0-32.28-13.127-33.217-29.883a44.596 44.596 0 0 1-.07-2.23c0-20.149 13.924-27.676 22.21-30.363a42.495 42.495 0 0 1-.076-2.63c0-16.59 11.396-33.754 26.509-39.924 17.628-7.251 36.314-3.653 49.976 9.64 4.202 4.076 7.666 9.038 10.335 14.791 3.601-2.902 8.021-4.503 12.671-4.503 9.47 0 19.42 6.78 21.233 21.843 17.27 4.227 26.742 15.301 26.742 31.387" fill="#FFF"/></svg>
